X: 37991
T: Speed Hump
R: jig
M: 6/8
K: Gmajor
|:g3 gde|g2b age|d2d edB|^A2B def|
g/a/bg age|d2d edB|z2g edB|1 ABA G2e:|2 ABA G2A||
|:deg Bag|egc age|d2b bag|ABc def|gGA Bag|
gce age|1 dgg g2g|g2g gab:|2 b2B cde|fga g3||

